public/assets/img/casestudies/wellmee/Step3.svg

<svg fill="none" height="49" viewBox="0 0 48 49" width="48" xmlns="http://www.w3.org/2000/svg"><path d="m36 38.7776h-24c-1.5913 0-3.11742-.6321-4.24264-1.7573s-1.75736-2.6514-1.75736-4.2427v-16c0-.5304-.21071-1.0391-.58579-1.4142-.37507-.375-.88378-.5858-1.41421-.5858s-1.03914.2108-1.41421.5858c-.37508.3751-.58579.8838-.58579 1.4142v16c0 2.6522 1.05357 5.1958 2.92893 7.0711.92859.9286 2.03098 1.6652 3.24424 2.1677 1.21325.5026 2.51363.7612 3.82683.7612h24c.5304 0 1.0391-.2107 1.4142-.5857.3751-.3751.5858-.8838.5858-1.4143 0-.5304-.2107-1.0391-.5858-1.4142-.3751-.375-.8838-.5858-1.4142-.5858zm-8-16h-8c-.5304 0-1.0391.2108-1.4142.5858-.3751.3751-.5858.8838-.5858 1.4142 0 .5305.2107 1.0392.5858 1.4143.3751.375.8838.5857 1.4142.5857h8c.5304 0 1.0391-.2107 1.4142-.5857.3751-.3751.5858-.8838.5858-1.4143 0-.5304-.2107-1.0391-.5858-1.4142-.3751-.375-.8838-.5858-1.4142-.5858zm18-2.12c-.0208-.1837-.0611-.3647-.12-.54v-.18c-.0962-.2056-.2244-.3946-.38-.56l-12-11.99995c-.1653-.15557-.3544-.28384-.56-.38h-.18c-.2032-.11652-.4276-.19131-.66-.22h-16.1c-1.5913 0-3.1174.63214-4.2426 1.75736-1.1253 1.12522-1.7574 2.65129-1.7574 4.24259v16c0 1.5913.6321 3.1175 1.7574 4.2427 1.1252 1.1252 2.6513 1.7573 4.2426 1.7573h24c1.5913 0 3.1174-.6321 4.2426-1.7573 1.1253-1.1252 1.7574-2.6514 1.7574-4.2427v-8s0 0 0-.12zm-12-7.06 5.18 5.18h-3.18c-.5304 0-1.0391-.2107-1.4142-.5857-.3751-.3751-.5858-.8838-.5858-1.4143zm8 15.18c0 .5305-.2107 1.0392-.5858 1.4143-.3751.375-.8838.5857-1.4142.5857h-24c-.5304 0-1.0391-.2107-1.4142-.5857-.3751-.3751-.5858-.8838-.5858-1.4143v-16c0-.5304.2107-1.0391.5858-1.4142.3751-.375.8838-.5858 1.4142-.5858h14v6c0 1.5913.6321 3.1175 1.7574 4.2427 1.1252 1.1252 2.6513 1.7573 4.2426 1.7573h6zm-22-10h4c.5304 0 1.0391-.2107 1.4142-.5857.3751-.3751.5858-.8838.5858-1.4143 0-.5304-.2107-1.0391-.5858-1.4142-.3751-.375-.8838-.5858-1.4142-.5858h-4c-.5304 0-1.0391.2108-1.4142.5858-.3751.3751-.5858.8838-.5858 1.4142 0 .5305.2107 1.0392.5858 1.4143.3751.375.8838.5857 1.4142.5857z" fill="#00ceba"/></svg>

<svg width="48" height="49" viewBox="0 0 48 49" fill="none" xmlns="http://www.w3.org/2000/svg">
<path d="M36 38.7776H12C10.4087 38.7776 8.88258 38.1455 7.75736 37.0203C6.63214 35.8951 6 34.3689 6 32.7776V16.7776C6 16.2472 5.78929 15.7385 5.41421 15.3634C5.03914 14.9884 4.53043 14.7776 4 14.7776C3.46957 14.7776 2.96086 14.9884 2.58579 15.3634C2.21071 15.7385 2 16.2472 2 16.7776V32.7776C2 35.4298 3.05357 37.9734 4.92893 39.8487C5.85752 40.7773 6.95991 41.5139 8.17317 42.0164C9.38642 42.519 10.6868 42.7776 12 42.7776H36C36.5304 42.7776 37.0391 42.5669 37.4142 42.1919C37.7893 41.8168 38 41.3081 38 40.7776C38 40.2472 37.7893 39.7385 37.4142 39.3634C37.0391 38.9884 36.5304 38.7776 36 38.7776ZM28 22.7776H20C19.4696 22.7776 18.9609 22.9884 18.5858 23.3634C18.2107 23.7385 18 24.2472 18 24.7776C18 25.3081 18.2107 25.8168 18.5858 26.1919C18.9609 26.5669 19.4696 26.7776 20 26.7776H28C28.5304 26.7776 29.0391 26.5669 29.4142 26.1919C29.7893 25.8168 30 25.3081 30 24.7776C30 24.2472 29.7893 23.7385 29.4142 23.3634C29.0391 22.9884 28.5304 22.7776 28 22.7776ZM46 20.6576C45.9792 20.4739 45.9389 20.2929 45.88 20.1176V19.9376C45.7838 19.732 45.6556 19.543 45.5 19.3776L33.5 7.37765C33.3347 7.22208 33.1456 7.09381 32.94 6.99765H32.76C32.5568 6.88113 32.3324 6.80634 32.1 6.77765H16C14.4087 6.77765 12.8826 7.40979 11.7574 8.53501C10.6321 9.66023 10 11.1863 10 12.7776V28.7776C10 30.3689 10.6321 31.8951 11.7574 33.0203C12.8826 34.1455 14.4087 34.7776 16 34.7776H40C41.5913 34.7776 43.1174 34.1455 44.2426 33.0203C45.3679 31.8951 46 30.3689 46 28.7776V20.7776C46 20.7776 46 20.7776 46 20.6576ZM34 13.5976L39.18 18.7776H36C35.4696 18.7776 34.9609 18.5669 34.5858 18.1919C34.2107 17.8168 34 17.3081 34 16.7776V13.5976ZM42 28.7776C42 29.3081 41.7893 29.8168 41.4142 30.1919C41.0391 30.5669 40.5304 30.7776 40 30.7776H16C15.4696 30.7776 14.9609 30.5669 14.5858 30.1919C14.2107 29.8168 14 29.3081 14 28.7776V12.7776C14 12.2472 14.2107 11.7385 14.5858 11.3634C14.9609 10.9884 15.4696 10.7776 16 10.7776H30V16.7776C30 18.3689 30.6321 19.8951 31.7574 21.0203C32.8826 22.1455 34.4087 22.7776 36 22.7776H42V28.7776ZM20 18.7776H24C24.5304 18.7776 25.0391 18.5669 25.4142 18.1919C25.7893 17.8168 26 17.3081 26 16.7776C26 16.2472 25.7893 15.7385 25.4142 15.3634C25.0391 14.9884 24.5304 14.7776 24 14.7776H20C19.4696 14.7776 18.9609 14.9884 18.5858 15.3634C18.2107 15.7385 18 16.2472 18 16.7776C18 17.3081 18.2107 17.8168 18.5858 18.1919C18.9609 18.5669 19.4696 18.7776 20 18.7776Z" fill="#00CEBA"/>
</svg>
